blockchains/ethereum/assets/0x056Fd409E1d7A124BD7017459dFEa2F387b6d5Cd/logo.svg

<svg fill="none" height="250" viewBox="0 0 250 250" width="250" xmlns="http://www.w3.org/2000/svg" xmlns:xlink="http://www.w3.org/1999/xlink"><clipPath id="a"><path d="m0 0h250v250h-250z"/></clipPath><g clip-path="url(#a)"><path d="m125 250c69.036 0 125-55.964 125-125 0-69.0356-55.964-125-125-125-69.0356 0-125 55.9644-125 125 0 69.036 55.9644 125 125 125z" fill="#00dcfa"/><path d="m151.391 39.0625c-30.235 0-55.9144 23.25-59.141 53.1797-29.9453 3.2344-53.1875 28.9138-53.1875 59.1408.0083 15.791 6.2844 30.933 17.4495 42.099 11.1652 11.167 26.3064 17.445 42.0974 17.456 30.2346 0 56.0156-23.25 59.1406-53.18 29.938-3.235 53.188-28.914 53.188-59.1408-.009-15.791-6.285-30.933-17.45-42.0996-11.165-11.1667-26.306-17.4448-42.097-17.4551zm45.593 66.2185c-1.486 9.766-6.056 18.802-13.041 25.787s-16.021 11.555-25.787 13.041v-38.828zm-143.9684 39.438c1.4668-9.785 6.0276-18.843 13.0145-25.848s16.0329-11.59 25.8136-13.082v38.828h-38.8281zm91.1954 13.437c-1.613 10.939-7.108 20.932-15.48 28.155-8.373 7.222-19.065 11.191-30.1216 11.181-11.0551.01-21.7446-3.958-30.1157-11.179s-13.865-17.212-15.4781-28.149h91.1954zm.508-52.875v39.336h-39.438v-39.336zm52.265-13.4373h-91.195c1.613-10.9388 7.108-20.9321 15.48-28.1543 8.373-7.2222 19.065-11.1911 30.122-11.1816 11.055-.0095 21.744 3.9585 30.115 11.1793 8.371 7.2207 13.865 17.2121 15.478 28.1488z" fill="#fff"/></g></svg>

<svg width="250" height="250" viewBox="0 0 250 250" fill="none" xmlns="http://www.w3.org/2000/svg">
<g clip-path="url(#clip0_48_12988)">
<path d="M125 250C194.036 250 250 194.036 250 125C250 55.9644 194.036 0 125 0C55.9644 0 0 55.9644 0 125C0 194.036 55.9644 250 125 250Z" fill="#00DCFA"/>
<path d="M151.391 39.0625C121.156 39.0625 95.4766 62.3125 92.25 92.2422C62.3047 95.4766 39.0625 121.156 39.0625 151.383C39.0708 167.174 45.3469 182.316 56.512 193.482C67.6772 204.649 82.8184 210.927 98.6094 210.938C128.844 210.938 154.625 187.688 157.75 157.758C187.688 154.523 210.938 128.844 210.938 98.6172C210.929 82.8262 204.653 67.6842 193.488 56.5176C182.323 45.3509 167.182 39.0728 151.391 39.0625ZM196.984 105.281C195.498 115.047 190.928 124.083 183.943 131.068C176.958 138.053 167.922 142.623 158.156 144.109V105.281H196.984ZM53.0156 144.719C54.4824 134.934 59.0432 125.876 66.0301 118.871C73.017 111.866 82.063 107.281 91.8437 105.789V144.617H53.0156V144.719ZM144.211 158.156C142.598 169.095 137.103 179.088 128.731 186.311C120.358 193.533 109.666 197.502 98.6094 197.492C87.5543 197.502 76.8648 193.534 68.4937 186.313C60.1226 179.092 54.6287 169.101 53.0156 158.164H144.211V158.156ZM144.719 105.281V144.617H105.281V105.281H144.719ZM196.984 91.8437H105.789C107.402 80.9049 112.897 70.9116 121.269 63.6894C129.642 56.4672 140.334 52.4983 151.391 52.5078C162.446 52.4983 173.135 56.4663 181.506 63.6871C189.877 70.9078 195.371 80.8992 196.984 91.8359V91.8437Z" fill="white"/>
</g>
<defs>
<clipPath id="clip0_48_12988">
<rect width="250" height="250" fill="white"/>
</clipPath>
</defs>
</svg>
